Numix-Circle/48x48/apps/vlmc.svg

<?xml version="1.0" encoding="UTF-8" standalone="no"?>
<svg
   xmlns:dc="http://purl.org/dc/elements/1.1/"
   xmlns:cc="http://creativecommons.org/ns#"
   xmlns:rdf="http://www.w3.org/1999/02/22-rdf-syntax-ns#"
   xmlns:svg="http://www.w3.org/2000/svg"
   xmlns="http://www.w3.org/2000/svg"
   xmlns:xlink="http://www.w3.org/1999/xlink"
   xmlns:sodipodi="http://sodipodi.sourceforge.net/DTD/sodipodi-0.dtd"
   xmlns:inkscape="http://www.inkscape.org/namespaces/inkscape"
   viewBox="0 0 48 48"
   id="svg3029"
   version="1.1"
   inkscape:version="0.91 r13725"
   width="100%"
   height="100%"
   sodipodi:docname="vlmc.svg">
  <metadata
     id="metadata3112">
    <rdf:RDF>
      <cc:Work
         rdf:about="">
        <dc:format>image/svg+xml</dc:format>
        <dc:type
           rdf:resource="http://purl.org/dc/dcmitype/StillImage" />
      </cc:Work>
    </rdf:RDF>
  </metadata>
  <sodipodi:namedview
     pagecolor="#ffffff"
     bordercolor="#666666"
     borderopacity="1"
     objecttolerance="10"
     gridtolerance="10"
     guidetolerance="10"
     inkscape:pageopacity="0"
     inkscape:pageshadow="2"
     inkscape:window-width="1366"
     inkscape:window-height="713"
     id="namedview3110"
     showgrid="false"
     inkscape:zoom="19.666666"
     inkscape:cx="6.546459"
     inkscape:cy="24.287471"
     inkscape:window-x="0"
     inkscape:window-y="28"
     inkscape:window-maximized="1"
     inkscape:current-layer="svg3029" />
  <defs
     id="defs3031">
    <linearGradient
       id="linearGradient3778">
      <stop
         style="stop-color:#ffac0c;stop-opacity:1;"
         offset="0"
         id="stop3780" />
      <stop
         style="stop-color:#ffb321;stop-opacity:1;"
         offset="1"
         id="stop3782" />
    </linearGradient>
    <linearGradient
       inkscape:collect="always"
       xlink:href="#linearGradient3778"
       id="linearGradient3784"
       x1="1"
       y1="23"
       x2="47"
       y2="23"
       gradientUnits="userSpaceOnUse"
       gradientTransform="matrix(0,-1,1,0,1,47)" />
  </defs>
  <g
     transform="translate(0.001,-1)"
     id="g30">
    <path
       style="opacity:0.05"
       inkscape:connector-curvature="0"
       d="m 36.31,5 c 5.859,4.062 9.688,10.831 9.688,18.5 0,12.426 -10.07,22.5 -22.5,22.5 -7.669,0 -14.438,-3.828 -18.5,-9.688 1.037,1.822 2.306,3.499 3.781,4.969 4.085,3.712 9.514,5.969 15.469,5.969 12.703,0 23,-10.298 23,-23 0,-5.954 -2.256,-11.384 -5.969,-15.469 C 39.81,7.306 38.132,6.037 36.31,5 z m 4.969,3.781 c 3.854,4.113 6.219,9.637 6.219,15.719 0,12.703 -10.297,23 -23,23 -6.081,0 -11.606,-2.364 -15.719,-6.219 4.16,4.144 9.883,6.719 16.219,6.719 12.703,0 23,-10.298 23,-23 0,-6.335 -2.575,-12.06 -6.719,-16.219 z"
       id="path32" />
    <path
       style="opacity:0.1"
       inkscape:connector-curvature="0"
       d="m 41.28,8.781 c 3.712,4.085 5.969,9.514 5.969,15.469 0,12.703 -10.297,23 -23,23 -5.954,0 -11.384,-2.256 -15.469,-5.969 4.113,3.854 9.637,6.219 15.719,6.219 12.703,0 23,-10.298 23,-23 0,-6.081 -2.364,-11.606 -6.219,-15.719 z"
       id="path34" />
    <path
       style="opacity:0.2"
       inkscape:connector-curvature="0"
       d="M 31.25,2.375 C 39.865,5.529 46,13.792 46,23.505 c 0,12.426 -10.07,22.5 -22.5,22.5 -9.708,0 -17.971,-6.135 -21.12,-14.75 a 23,23 0 0 0 44.875,-7 23,23 0 0 0 -16,-21.875 z"
       id="path36" />
  </g>
  <path
     style="fill:url(#linearGradient3784);fill-opacity:1"
     d="m 1,23 c 0,7.939 4.0099999,14.9315 10.125,19.0625 0.01,-0.003 0.02125,0.003 0.03125,0 C 14.82325,44.5335 19.246,46 24,46 36.703,46 47,35.703 47,23 47,21.104 46.77575,19.263 46.34375,17.5 44.17475,8.663 36.8875,1.8295 27.8125,0.3125 26.5705,0.1045 25.302,0 24,0 11.812,0 1.8505,9.47975 1.0625,21.46875 1.0295,21.97575 1,22.485 1,23 z"
     id="path38"
     inkscape:connector-curvature="0" />
  <g
     transform="translate(0.001,-1)"
     id="g46">
    <path
       style="opacity:0.1"
       inkscape:connector-curvature="0"
       d="m 40.03,7.531 c 3.712,4.084 5.969,9.514 5.969,15.469 0,12.703 -10.297,23 -23,23 C 17.045,46 11.615,43.744 7.53,40.031 11.708,44.322 17.54,47 23.999,47 c 12.703,0 23,-10.298 23,-23 0,-6.462 -2.677,-12.291 -6.969,-16.469 z"
       id="path48" />
  </g>
  <path
     style="fill:#2d2d2d;fill-opacity:1;fill-rule:nonzero;stroke:none"
     inkscape:connector-curvature="0"
     id="path3092"
     d="m 12,20 23,-3.836 c 1,-0.234 1,-0.559 1,-1.168 l 0,-2 c 0,-0.445 -0.457,-0.766 -1,-0.77 l -22,3.43 c -1,0.34 -1,0.816 -1,1.336 m 0,3.01" />
  <path
     style="fill:#2d2d2d;fill-opacity:1;fill-rule:nonzero;stroke:none"
     inkscape:connector-curvature="0"
     id="path3094"
     d="m 13.773,20 20.453,0 c 0.98,0 1.773,0.703 1.773,1.57 l 0,12.855 c 0,0.871 -0.793,1.574 -1.773,1.574 l -20.453,0 C 12.793,35.999 12,35.296 12,34.425 L 12,21.57 C 12,20.703 12.793,20 13.773,20 m 0,0" />
  <path
     style="opacity:0.1;fill:#2d2d2d;fill-opacity:1;fill-rule:nonzero;stroke:none"
     d="m 36,13.21875 -22,3.4375 C 13,16.99625 13,17.48 13,18 13,23.8125 13,29.625 13,35.4375 13,36.3085 13.80125,37 14.78125,37 l 20.4375,0 C 36.19875,37 37,36.3085 37,35.4375 l 0,-12.875 C 37,21.6955 36.19875,21 35.21875,21 L 16,21 16,20.5 36,17.15625 C 37,16.92225 37,16.609 37,16 l 0,-2 c 0,-0.445 -0.457,-0.77725 -1,-0.78125 z"
     id="path3204"
     inkscape:connector-curvature="0"
     sodipodi:nodetypes="ccccssssscccssc" />
  <path
     style="fill:#2d2d2d;fill-opacity:1;fill-rule:nonzero;stroke:none"
     inkscape:connector-curvature="0"
     id="path3102"
     d="m 12.5,18 2,0 c 0.277,0 0.5,0.199 0.5,0.445 l 0,5.109 c 0,0.246 -0.223,0.445 -0.5,0.445 l -2,0 C 12.223,23.999 12,23.8 12,23.554 l 0,-5.109 C 12,18.199 12.223,18 12.5,18 m 0,0" />
</svg>

<svg xmlns="http://www.w3.org/2000/svg" viewBox="0 0 48 48"><defs><linearGradient id="linearGradient3784" x1="1" x2="47" gradientUnits="userSpaceOnUse" gradientTransform="matrix(0,-1,1,0,1,47)"><stop stop-color="#ffac0c" stop-opacity="1"/><stop offset="1" stop-color="#ffb321" stop-opacity="1"/></linearGradient></defs><g transform="translate(0.001,-1)"><path d="m 36.31,5 c 5.859,4.062 9.688,10.831 9.688,18.5 0,12.426 -10.07,22.5 -22.5,22.5 -7.669,0 -14.438,-3.828 -18.5,-9.688 1.037,1.822 2.306,3.499 3.781,4.969 4.085,3.712 9.514,5.969 15.469,5.969 12.703,0 23,-10.298 23,-23 0,-5.954 -2.256,-11.384 -5.969,-15.469 C 39.81,7.306 38.132,6.037 36.31,5 z m 4.969,3.781 c 3.854,4.113 6.219,9.637 6.219,15.719 0,12.703 -10.297,23 -23,23 -6.081,0 -11.606,-2.364 -15.719,-6.219 4.16,4.144 9.883,6.719 16.219,6.719 12.703,0 23,-10.298 23,-23 0,-6.335 -2.575,-12.06 -6.719,-16.219 z" opacity="0.05"/><path d="m 41.28 8.781 c 3.712 4.085 5.969 9.514 5.969 15.469 0 12.703 -10.297 23 -23 23 -5.954 0 -11.384 -2.256 -15.469 -5.969 4.113 3.854 9.637 6.219 15.719 6.219 12.703 0 23 -10.298 23 -23 0 -6.081 -2.364 -11.606 -6.219 -15.719 z" opacity="0.1"/><path d="M 31.25,2.375 C 39.865,5.529 46,13.792 46,23.505 c 0,12.426 -10.07,22.5 -22.5,22.5 -9.708,0 -17.971,-6.135 -21.12,-14.75 a 23,23 0 0 0 44.875,-7 23,23 0 0 0 -16,-21.875 z" opacity="0.2"/></g><path d="m 1,23 c 0,7.939 4.0099999,14.9315 10.125,19.0625 0.01,-0.003 0.02125,0.003 0.03125,0 C 14.82325,44.5335 19.246,46 24,46 36.703,46 47,35.703 47,23 47,21.104 46.77575,19.263 46.34375,17.5 44.17475,8.663 36.8875,1.8295 27.8125,0.3125 26.5705,0.1045 25.302,0 24,0 11.812,0 1.8505,9.47975 1.0625,21.46875 1.0295,21.97575 1,22.485 1,23 z" fill="url(#linearGradient3784)" fill-opacity="1"/><g transform="translate(0.001,-1)"><path d="m 40.03,7.531 c 3.712,4.084 5.969,9.514 5.969,15.469 0,12.703 -10.297,23 -23,23 C 17.045,46 11.615,43.744 7.53,40.031 11.708,44.322 17.54,47 23.999,47 c 12.703,0 23,-10.298 23,-23 0,-6.462 -2.677,-12.291 -6.969,-16.469 z" opacity="0.1"/></g><path d="m 12 20 23 -3.836 c 1 -0.234 1 -0.559 1 -1.168 l 0 -2 c 0 -0.445 -0.457 -0.766 -1 -0.77 l -22 3.43 c -1 0.34 -1 0.816 -1 1.336 m 0 3.01" fill="#2d2d2d" fill-rule="nonzero" stroke="none" fill-opacity="1"/><path d="m 13.773,20 20.453,0 c 0.98,0 1.773,0.703 1.773,1.57 l 0,12.855 c 0,0.871 -0.793,1.574 -1.773,1.574 l -20.453,0 C 12.793,35.999 12,35.296 12,34.425 L 12,21.57 C 12,20.703 12.793,20 13.773,20 m 0,0" fill="#2d2d2d" fill-rule="nonzero" stroke="none" fill-opacity="1"/><path d="m 36 13.219 -22 3.438 c -1 0.34 -1 0.824 -1 1.344 0 5.813 0 11.625 0 17.438 0 0.871 0.801 1.563 1.781 1.563 l 20.438 0 c 0.98 0 1.781 -0.691 1.781 -1.563 l 0 -12.875 c 0 -0.867 -0.801 -1.563 -1.781 -1.563 l -19.219 0 0 -0.5 20 -3.344 c 1 -0.234 1 -0.547 1 -1.156 l 0 -2 c 0 -0.445 -0.457 -0.777 -1 -0.781 z" opacity="0.1" fill="#2d2d2d" fill-rule="nonzero" stroke="none" fill-opacity="1"/><path d="m 12.5,18 2,0 c 0.277,0 0.5,0.199 0.5,0.445 l 0,5.109 c 0,0.246 -0.223,0.445 -0.5,0.445 l -2,0 C 12.223,23.999 12,23.8 12,23.554 l 0,-5.109 C 12,18.199 12.223,18 12.5,18 m 0,0" fill="#2d2d2d" fill-rule="nonzero" stroke="none" fill-opacity="1"/></svg>
